svgs/light/2.svg

<svg xmlns="http://www.w3.org/2000/svg" viewBox="0 0 320 512"><!-- Font Awesome Pro 6.0.0-alpha2 by @fontawesome - https://fontawesome.com License - https://fontawesome.com/license (Commercial License) --><path d="M320 463.998C320 472.843 312.844 480 304 480H16.003C9.394 480 3.472 475.937 1.081 469.78C-1.31 463.623 0.347 456.622 5.237 452.152L218.47 257.97C264.172 217.902 269.485 150.236 230.751 103.761C211.501 80.664 184.407 66.662 154.439 64.287C124.689 62.068 95.549 71.538 72.908 91.322L40.862 119.357C34.221 125.139 24.128 124.514 18.284 117.857C12.472 111.199 13.143 101.104 19.8 95.291L51.846 67.256C81.002 41.721 118.58 29.657 156.939 32.376C195.579 35.439 230.516 53.504 255.329 83.258C305.266 143.204 298.422 230.435 239.782 281.848L57.346 447.996H304C312.844 447.996 320 455.153 320 463.998Z"/></svg>

<svg xmlns="http://www.w3.org/2000/svg" viewBox="0 0 320 512"><!--! Font Awesome Pro 6.0.0-alpha3 by @fontawesome - https://fontawesome.com License - https://fontawesome.com/license (Commercial License) --><path d="M320 463.1C320 472.8 312.8 480 304 480H16c-6.607 0-12.53-4.064-14.92-10.22s-.7344-13.16 4.156-17.63l213.2-194.2c45.7-40.07 51.02-107.7 12.28-154.2C211.5 80.66 184.4 66.66 154.4 64.29c-29.75-2.221-58.89 7.25-81.53 27.03L40.86 119.4C34.22 125.1 24.13 124.5 18.28 117.9C12.47 111.2 13.14 101.1 19.8 95.29l32.05-28.04C81 41.72 118.6 29.66 156.9 32.38c38.64 3.064 73.58 21.13 98.39 50.88c49.94 59.95 43.09 147.2-15.55 198.6l-182.4 166.1H304C312.8 447.1 320 455.2 320 463.1z"/></svg>
